X:1
T:Solace
T:“SOLACE”
T:By SCOTT JOPLIN Composer of“Maple Leaf Rag”
T:A Mexican Serenade.
T:Public Domain
T:Public Domain
T:Public Domain
T:Public Domain
T:Public Domain
C:Scott Joplin
Z:Public Domain
%%score { ( 1 4 5 ) | ( 2 3 ) }
L:1/8
Q:1/4=56
M:2/4
K:C
V:1 treble nm="Piano" snm="Pno."
V:4 treble 
V:5 treble 
V:2 bass 
V:3 bass 
V:1
"^Very slow march time"!mf! (c>d) (e/^d/e) | (g>a) g(a/b/) | (c'>^d) (e/^G/A) | (A =G2) c |: %4
!mf! (B/_B/A/G/- G/^G/A/^A/) | (=B/[df]/[^cg]/[df]/-) ([df]/[cg]/[df]/B/) | %6
 (=c/B/A/G/-) (G/^G/A/B/) | (c/[e=g]/[^da]/[eg]/-) ([eg]/[da]/[eg]/^c/) | %8
 (=d/f/a/[fd']/-) [fd']/(f/e/d/-) | d/[CD_A][B,DG]/- ([B,DG]d) | (c/e/g/[ec']/-) [ec']/(e/d/c/-) | %11
 c/[C^F][CEG]/- ([CEG]c) | (B/_B/A/G/- G/^G/A/^A/) | =B/[df]/[^cg]/[df]/- ([df]/[cg]/[df]/B/) | %14
 (=c/B/A/G/- G/^G/A/B/) | (c/[e=g]/[^da]/[eg]/-) ([eg]/[da]/[eg]/_B/) | %16
 A/[fa][cfac']/-!<(! [cfac']/([=B=b]/[cc']/[=d=d']/)!<)! | %17
 ((!>![^da-c'-^d']2 ([=dac'=d']))[_Acf_a]) | [Gceg]2- [Gceg]/([dfd'][ege']/) |1 [cec']2 (e/d/c) :|2 %20
 [cec']!<(!(e/f/) [eg]!^![e^g]!<)! |:!f! [fa](c/4d/4e/4f/4 (=g/)f)(3(f/4g/4f/4) | %22
!>(! [_Af]/[Ge]/[Ge]/[^Fc^d]/-!>)! [Fcd][=FB=d] |!mp! ((([E^A^c]2 [FBd])))[EBe] | %24
 [E=A=ce]!<(!(e/f/) [eg]!^![e^g]!<)! |!f! [fa](c/4d/4e/4f/4 (=g/)f)(3(f/4g/4f/4) | %26
 [_Af]/[Ge]/[Ge]/[Gce]/- [Gce][G_Be] | (e/d/e/B/-) (B/d/=A) | (A G2) [Bdg] | %29
 (g/f)e/ ([Fdf]/[Geg]/[Afa]/[^Af^a]/) | [Bdfb]3 [Bd=g] | (g/f)e/ ([Fdf]/[Geg]/[Afa]/[^Af^a]/) | %32
 [Bdfb]3 [Bdfb] | [cec']2- [cec']/([cc']/[dd']/[ee']/) | ([eae'] [dad']2)!mp! [Fcdf] | %35
 [FBdf][GBdg]- [GBdg]/(G/[FBe]) |1 [Ec]!<(!(e/f/) [eg]!^![e^g]!<)! :|2 [Ec]2 (e/d/c) || %38
!mf! (B/_B/A/G/- G/^G/A/^A/) | (=B/[df]/[^cg]/[df]/-) ([df]/[cg]/[df]/B/) | %40
 (=c/B/A/G/- G/^G/A/B/) | (c/[e=g]/[^da]/[eg]/-) ([eg]/[da]/[eg]/^c/) | %42
 (=d/f/a/[fd']/-) [fd']/(f/e/d/-) | d/[CD_A][B,DG]/- [B,DG]d | (c/e/g/[ec']/-) [ec']/(e/d/c/-) | %45
 c/[C^F][CEG]/- [CEG]c | (B/_B/A/G/- G/^G/A/^A/) | (=B/[df]/[^cg]/[df]/- [df]/[cg]/[df]/B/) | %48
 (=c/B/A/G/- G/^G/A/B/) | (c/[e=g]/[^da]/[eg]/-) ([eg]/[da]/[eg]/_B/) | %50
 A/[fa][cfac']/-!<(! [cfac']/([=B=b]/[cc']/[=d=d']/)!<)! | %51
 ((!>![^da-c'-^d']2 ([=dac'=d']))[_Acf_a]) | [Gceg]2- [Gceg]/([dfd'][ege']/) | %53
 [cec']2-!>(! [cec'][_B,E]!>)! |:[K:F]!mp! F2- (F/A/[Adf]) | [Gdf]>[G_B]- B/B/[df] | %56
 [Gdf]>[Gce]- e/^d/e | [FAe]>[FA]- [FA]!fermata![B,E] |"^a tempo" F2-!<(! (F/A/c/!<)!d/) | %59
!mf! e2- (e/^d/)e | e2- e/^d/e | [EAe]2- [EAe]!mp!!fermata![_B,E] | F2- ([CF]/A/[Adf]) | %63
 [Gdf]>[GB]- B/B/[df] | [Gdf]>[Gce]- e/^d/e | [FAe]>[FA]- [FA][FA] | [FB]>[FB]- (B/c/B) | %67
 [FA]/[FA][F^G]/- [FG][FGd] | d/cB/- [DEB][CEA] |1 [A,F]3 !fermata![B,E] :|2 %70
 [A,F]2-!<(! [A,F](!fermata!d/f/)!<)! |:!f! [fb]/[eb]/[^db]/[eb]/- [eb]/[db][eb]/ | %72
 [fb]/[eb]/[^db]/[eb]/- [eb]/[db][eb]/ | [ea]/[=da]/[^ca]/[da]/- [da]2- | [da]2- [da]/[Ad][A=c]/ | %75
 ([Ac]/[GB]/[^FA]/[GB]/-) [GB]/[FA][GB]/ | ([Ac]/[GB]/[^FA]/[GB]/-) [GB]/[FA][GB]/ | %77
 [GB]/[=FA]/[GB]/[Ac]/- [Ac]2- | [Ac]2- [Ac](!fermata!d/f/) | %79
 [fb]/[eb]/[^db]/[eb]/- [eb]/[db][eb]/ | [fb]/[eb]/[^db]/[eb]/- [eb]/[db][eb]/ | %81
 [ea]/[=da]/[^ca]/[da]/- [da]2- | [da]2- a/(a/f/_e/) | (d/f/d/f/-) f/(fd/) | (d/f/d/c/-) c/(fg/) | %85
 ([ca]/[=B^g]/[ca]/[Ac]/-) c/(A=G/) |1 F3 !fermata!d/f/ :|2 F2 !^![FAcf] z!fine! |] %88
V:2
 (C>D) (E/^D/E) |[I:staff -1] G>A G(A/B/) | (c>^D) (E/[I:staff +1]^G,/A,) | (F, E,2) (E,/_E,/) |: %4
 D,>G, [B,F]D, | (G,,>G, [B,F]^D,) | (E,>G, [CE]G,) | (C,>G, [CE]E,) | (F,>A, [DF]A,) | %9
 F,F, (D,/E,/F,) | (E,>G, [CE]G,) | (^D,E,) (C,/=D,/E,/_E,/) | D,>G, [B,F]D, | (G,,>G, [B,F]^D,) | %14
 (E,>G, [CE]G,) | C,>G, [CE]C, | (F,>A, [CF]A,) | (!>!^F2 =F2) | z/ (E,/F,/^F,/) G,<B, |1 %19
 ([C,C]/E,/F,/^F,/ G,/=F,/E,/_E,/) :|2 [C,C] z z !^![C,_B,] |: %21
!ped!{C,,D,,E,,} F,,>A, [CF]F,,!ped-up! |{G,,A,,B,,} (C,>A, [C^D]_A,) |{E,F,^F,} G,>(G, G,,)^G,, | %24
 A,,>A, [CE]!^!_B, |!ped!{C,,D,,E,,} F,,>A, [CF]F,,!ped-up! |{G,,A,,B,,} (C,>G, [CE]^C,) | %27
 D,>G, [B,D]D, | G,,>G, [B,F]G,, | D,>F, [A,D]D, |!ped! ^G,,>^G, [B,DF][=G,,=G,]!ped-up! | %31
 D,>F, [A,D]D, |!ped! ^G,,>^G, [B,DF]G,,!ped-up! |!ped! A,,>A, [CE]A,,!ped-up! | %34
 (F,,>A, [DF][_A,,_A,]) |!ped! G,>G, [B,F][G,,G,]!ped-up! |1 [C,G,] z z !^![C,_B,] :|2 %37
 [C,G,]/(E,/F,/^F,/ G,/=F,/E,/_E,/) || D,>G, [B,F]D, | (G,,>G, [B,F]^D,) | (E,>G, [CE]G,) | %41
 (C,>G, [CE]E,) | (F,>A, [DF]A,) | F,F, (D,/E,/F,) | (E,>G, [CE]G,) | (^D,E,) (C,/=D,/E,/_E,/) | %46
 D,>G, [B,F]D, | G,,>G, [B,F]^D, | E,>G, [CE]G, | C,>G, [CE]C, | (F,>A, [CF]A,) | (!>!^F2 =F2) | %52
 z/ (E,/F,/^F,/ (G,<)B,) | [C,C]G,/C,/- C,C, |:[K:F] (F,/G,/^G,/A,/-) (A,/F,/D,/C,/) | %55
 (B,,/B,/C/D/-) DB,, | (C,/G,/A,/B,/-) B,C,, | (F,,/^G,/A,/C/-) C!fermata!C, | %58
 (F,/G,/^G,/A,/-) A,F, | z/ (E/D/C/-) C2 | z/ (D/C/=B,/-) B,B, | C2- C!fermata!C, | %62
"^a tempo" (F,/G,/^G,/A,/-) (A,/F,/D,/C,/) | (B,,/B,/C/D/-) DB,, | (C,/G,/A,/B,/-) B,C,, | %65
 (F,,/^G,/A,/C/-) C_E, | (D,/F,/B,/D/-) (D_D) | C/C=B,/- B,B, | C>C,- C,2 |1 %69
 (F,>C,F,,) !fermata!C, :|2 (F,>C,F,,) !fermata!_A,, |: G,,>G, [B,CE]C,, | G,,>G, [B,CE]C,, | %73
 F,,>A, [=CF]C,, | (F,,/^G,/A,/D/-) D2 | G,,>G, [B,CE]C,, | E,,>G, [B,CE]C,, | F,,>A, [CF]C,, | %78
 F,,/(^G,/A,/C/-) C!fermata!_A,, | G,,>G, [B,CE]C,, | G,,>G, [B,CE]C,, | F,,>A, [=CF]C,, | %82
 F,,/(^G,/A,/D/-) D[A,F] | [B,F]>[=B,F]- [B,F]<[B,F] | [CF]>[_EF]- E<F | [CF]>[CF]- F/(C_B,/) |1 %86
 A,3 z :|2 A,3 z |] %88
V:3
 x4 | x4 | x4 | x4 |: D,3 D, | G,,3 ^D, | E,3 G, | C,3 E, | F,3 A, | x4 | E,3 G, | x4 | D,3 D, | %13
 G,,3 ^D, | E,3 G, | C,3 C, | F,3 A, | x4 | x2 (G,G,,) |1 x4 :|2 x4 |: F,,3 F,, | C,3 _A, | x4 | %24
 (A,,3 C,) | F,,3 F,, | C,3 ^C, | D,3 D, | G,,3 G,, | D,3 D, | ^G,,3 =G,, | D,3 D, | ^G,,3 G,, | %33
 A,,3 A,, | F,,3 _A,, | [G,,G,]3 G,, |1 x4 :|2 x4 || D,3 D, | G,,3 ^D, | E,3 G, | C,3 E, | F,3 A, | %43
 x4 | E,3 G, | x4 | D,3 D, | G,,3 ^D, | E,3 G, | C,3 C, | F,3 A, | x4 | x2 (G,G,,) | x4 |: %54
[K:F] x4 | B,,3 B,, | C,3 C,, | F,,3 C, | x4 | E,2- (E,/A,/E,/C,/) | E,,2- E,,E, | %61
 A,E,/A,,/- A,,C, | x4 | B,,3 B,, | C,3 C,, | (F,,3 _E,) | x4 | x4 | x4 |1 x4 :|2 x4 |: G,,3 C,, | %72
 G,,3 C,, | F,,3 C,, | (F,,3 ^F,,) | G,,3 C,, | E,,3 C,, | F,,3 C,, | F,,3 _A,, | G,,3 C,, | %80
 G,,3 C,, | F,,3 C,, | (F,,3 A,) | x4 | x2 F/(D_B,/) | x2 C<C, |1 (F,>C,F,,) !fermata!_A,, :|2 %87
 F,>C,!^!F,, x |] %88
V:4
 x4 | x4 | x4 | x4 |: x4 | x4 | x4 | x4 | x4 | x4 | x4 | x4 | x4 | x4 | x4 | x4 | x4 | x4 | x4 |1 %19
 x4 :|2 x4 |: x2 (A>_A) | x4 | x4 | x4 | x2 (A>_A) | x4 | [G=B]>G- G[C^F] | [B,=F]2 x2 | [Ad]2 x2 | %30
 x4 | [Ad]2 x2 | x4 | x4 | x4 | x4 |1 x4 :|2 x4 || x4 | x4 | x4 | x4 | x4 | x4 | x4 | x4 | x4 | %47
 x4 | x4 | x4 | x4 | x4 | x4 | x4 |:[K:F] (A,/B,/=B,/C/-) C2 | x2 GG | x2 [Gc][GB] | x4 | %58
 (A,/B,/=B,/C/-) (CA) | z/ (c/=B/A/-) A[EAc] | z/ (=B/A/^G/-) G[EG] | x4 | (A,/B,/=B,/C/-) x2 | %63
 x2 GG | x2 [Gc][GB] | x4 | x2 FF | x4 | [FA]>[DE]- x2 |1 x4 :|2 x4 |: x4 | x4 | x4 | x4 | x4 | %76
 x4 | x4 | x4 | x4 | x4 | x4 | x2 d<=c | B>^G- G<G | A>A- A<B | x2 A<=E |1 x4 :|2 x4 |] %88
V:5
 x4 | x4 | x4 | x4 |: x4 | x4 | x4 | x4 | x4 | x4 | x4 | x4 | x4 | x4 | x4 | x4 | x4 | x4 | x4 |1 %19
 x4 :|2 x4 |: x4 | x4 | x4 | x4 | x4 | x4 | x4 | x4 | x4 | x4 | x4 | x4 | x4 | x4 | x4 |1 x4 :|2 %37
 x4 || x4 | x4 | x4 | x4 | x4 | x4 | x4 | x4 | x4 | x4 | x4 | x4 | x4 | x4 | x4 | x4 |:[K:F] x4 | %55
 x4 | x4 | x4 | x4 | x4 | E3 x | x4 | x4 | x4 | x4 | x4 | x4 | x4 | x4 |1 x4 :|2 x4 |: x4 | x4 | %73
 x4 | x4 | x4 | x4 | x4 | x4 | x4 | x4 | x4 | x4 | x4 | x4 | x4 |1 x4 :|2 x4 |] %88

